X:89
T:??
M:4/4
L:1/8
Q:70
K:G
|:GA|B2D2 G3 A/2B/2|G6 AB|c2A2 B3G|F2GA D4|cBAG GFED|G3B E2 c/2B/2A|B2
G A/2B/2 AG FE/2F/2|G6:| Bc|d3 B d3 B|c/2d/2e3 A2Bc|d3G F (3D/2E/2F/2
G (3E/2F/2G/2|AGFE D2Bc|d3 B d3 B|c/2d/2e3 e/2f/2g3|fg ag fdef|g6ga|b2
g2 d3B|c2 de A6dc|B2G2F2G2|AGFE D2c2|B3 G d3B|c2de A6dc| B2 ga/2b/2 ag
fe/2f/2|g2 G2 G2||


